!!!COM: Bach, Johann Sebastian
!!!CDT: 1685/3//-1750/7/28/
!!!OTL@@DE: Hilf, Herr Jesu, lass gelingen
!!!AGN: 4-Part Chorale
!!!SCT: BH 368
!!!SCT: BWV 248
**harm	**root	**kern	**kern	**kern	**kern
*	*Iorgan	*Iorgan	*Iorgan	*Iorgan	*Iorgan
!	!	!bass	!tenor	!alto	!soprno
*M3/4	*M3/4	*M3/4	*M3/4	*M3/4	*M3/4
*MM60	*MM60	*MM60	*MM60	*MM60	*MM60
*k[b-e-a-d-g-c-]	*k[b-e-a-d-g-c-]	*k[b-e-a-d-g-c-]	*k[b-e-a-d-g-c-]	*k[b-e-a-d-g-c-]	*k[b-e-a-d-g-c-]
*G-:	*G-:	*G-:	*G-:	*G-:	*G-:
*>[A,A,B]	*>[A,A,B]	*>[A,A,B]	*>[A,A,B]	*>[A,A,B]	*>[A,A,B]
*>A	*>A	*>A	*>A	*>A	*>A
=1-	=1-	=1-	=1-	=1-	=1-
I	4FF	8G-	4g-	4b-	4dd-
.	.	8A-	.	.	.
Ib	2FF	4B-	2d-	2g-	2b-
.	.	4G-	.	.	.
=2	=2	=2	=2	=2	=2
V	2CC	2D-	4.d-	4g-	2a-
.	.	.	.	4f	.
.	.	.	8c-	.	.
vi	4DD	4E-	4B-	4g-	4g-
=3	=3	=3	=3	=3	=3
ii	4GG	8A-	2c-	4e-	4cc-
.	.	8G-	.	.	.
v7b	4CC	4F-	.	4a-	4.dd-
I	4FF	4G-	8B-	4g-	.
.	.	.	16c-	.	16ee-
.	.	.	16d-	.	16ff-
=4	=4	=4	=4	=4	=4
IV	2.BB-	8C-	4d-	2.g-	2.ee-
.	.	8D-	.	.	.
.	.	4E-	8c-	.	.
.	.	.	8B-	.	.
.	.	4C-	4c-	.	.
=5	=5	=5	=5	=5	=5
I;	2.FF;	2.G-;	2.B-;	2.g-;	2.dd-;
=6	=6	=6	=6	=6	=6
vi	4DD	4E-	4g-	4b-	4ee-
ii	2GG	4A-	2e-	2a-	2cc-
.	.	4G-	.	.	.
=7	=7	=7	=7	=7	=7
Vb	4CC	4F	8d-	4a-	2dd-
.	.	.	8c-	.	.
I	4FF	8G-	4B-	4g-	.
.	.	8F	.	.	.
vi	4DD	8E-	4B-	4g-	4g-
.	.	8D-	.	.	.
=8	=8	=8	=8	=8	=8
IVb	8BB-	8E-	8e-	8g-	4cc-
V7b	8CC	8F	8d-	8a-	.
I	2FF	4G-	2d-	4a-	2b-
.	.	4G-	.	4g-	.
=9	=9	=9	=9	=9	=9
V;	2.CC;	2.D-;	2.d-;	2.f;	2.a-;
*>B	*>B	*>B	*>B	*>B	*>B
!!linebreak: 2
=10:|!	=10:|!	=10:|!	=10:|!	=10:|!	=10:|!
V	4CC	8D-	2d-	8a-	4ff
.	.	8E-	.	8g-	.
Vb	4CC	4F	.	4a-	2dd-
V	4CC	4D-	4f	4a-	.
=11	=11	=11	=11	=11	=11
I	2FF	8G-	2d-	4a-	2b-
.	.	8F	.	.	.
.	.	4G-	.	4g-	.
IV	4BB-	4c-	[4c-	4g-	4ee-
=12	=12	=12	=12	=12	=12
viioD7	4EE	4F	4c-]	4a-	4dd
vib	4DD	4G-	4B-	4b-	4.ee-
IVb	8BB-	4E-	8e-	8cc-	.
vi7	8DD	.	8d-	8b-	16ff
.	.	.	.	.	16gg-
=13	=13	=13	=13	=13	=13
vii7d	4EE	4E-	4c-	8a-	2.ff
.	.	.	.	8g-	.
V7d/vi	4.AA	8D	8B-	4.a-	.
.	.	8C	8A-	.	.
.	.	4D	4B-	.	.
Vb/vi	8AA	.	.	8f	.
=14	=14	=14	=14	=14	=14
vi;	2.DD;	2.E-;	2.B-;	2.g-;	2.b-;
=15	=15	=15	=15	=15	=15
IV	4BB-	8c-	4.c-	4g-	4ee-
.	.	8B-	.	.	.
viib	4EE	4A-	.	4a-	4ff
.	.	.	8A-	.	.
I	4FF	4G-	4d-	4b-	4gg-
=16	=16	=16	=16	=16	=16
Vb	4CC	8F	2d-	8a-	4aa-
.	.	8E-	.	8g-	.
Vb	4CC	4F	.	4a-	4dd-
V7	4CC	4D-	4A-	4f	4cc-
=17	=17	=17	=17	=17	=17
I	4FF	4G-	2G-	4d-	4b-
IV	4BB-	2C-	.	4c-	4ee-
IV	4BB-	.	4e-	4g-	4cc-
=18	=18	=18	=18	=18	=18
V	4CC	8D-	4A-	4g-	2.a-
.	.	8C-	.	.	.
V	2CC	2D-	4d-	8f	.
.	.	.	.	8e-	.
.	.	.	4c-	4f	.
=19	=19	=19	=19	=19	=19
I;	2.FF;	2.GG-;	2.B-;	2.d-;	2.g-;
==	==	==	==	==	==
*-	*-	*-	*-	*-	*-
!!chor2scor: -l 2 -o %b.pmx
!!!YEC: Copyright 1994 by David Huron
!!!YEC: Changes/Additions 2001 by Craig Stuart Sapp
!!!YEN: United States of America
!!!SMA: 371 Bach Chorales, edited by Ludwig Erk, C.F. Peters
!!!PDT: 1850, 1865
!!!ONB: Harmony and Root analysis done manually
